src/img/footer-social/footer-social.svg

<svg width="32" height="32" viewBox="0 0 32 32" fill="none" xmlns="http://www.w3.org/2000/svg">
<rect width="32" height="32" rx="6" fill="white"/>
<path d="M15.9996 12.8181C14.2456 12.8181 12.8174 14.2456 12.8174 15.9996C12.8174 17.7544 14.2456 19.1826 15.9996 19.1826C17.7544 19.1826 19.1819 17.7544 19.1819 15.9996C19.1819 14.2456 17.7544 12.8181 15.9996 12.8181ZM15.9996 12.8181C14.2456 12.8181 12.8174 14.2456 12.8174 15.9996C12.8174 17.7544 14.2456 19.1826 15.9996 19.1826C17.7544 19.1826 19.1819 17.7544 19.1819 15.9996C19.1819 14.2456 17.7544 12.8181 15.9996 12.8181ZM21.301 7.62978H10.699C9.00674 7.62978 7.62978 9.00674 7.62978 10.699V21.301C7.62978 22.9933 9.00674 24.3702 10.699 24.3702H21.301C22.9933 24.3702 24.3702 22.9933 24.3702 21.301V10.699C24.3702 9.00674 22.9933 7.62978 21.301 7.62978ZM15.9996 21.511C12.9614 21.511 10.489 19.0386 10.489 15.9996C10.489 12.9614 12.9614 10.489 15.9996 10.489C19.0386 10.489 21.511 12.9614 21.511 15.9996C21.511 19.0386 19.0386 21.511 15.9996 21.511ZM21.6879 11.6286C20.9689 11.6286 20.384 11.0437 20.384 10.3247C20.384 9.60569 20.9689 9.02078 21.6879 9.02078C22.4069 9.02078 22.9919 9.60569 22.9919 10.3247C22.9919 11.0437 22.4069 11.6286 21.6879 11.6286ZM15.9996 12.8181C14.2456 12.8181 12.8174 14.2456 12.8174 15.9996C12.8174 17.7544 14.2456 19.1826 15.9996 19.1826C17.7544 19.1826 19.1819 17.7544 19.1819 15.9996C19.1819 14.2456 17.7544 12.8181 15.9996 12.8181ZM21.301 7.62978H10.699C9.00674 7.62978 7.62978 9.00674 7.62978 10.699V21.301C7.62978 22.9933 9.00674 24.3702 10.699 24.3702H21.301C22.9933 24.3702 24.3702 22.9933 24.3702 21.301V10.699C24.3702 9.00674 22.9933 7.62978 21.301 7.62978ZM15.9996 21.511C12.9614 21.511 10.489 19.0386 10.489 15.9996C10.489 12.9614 12.9614 10.489 15.9996 10.489C19.0386 10.489 21.511 12.9614 21.511 15.9996C21.511 19.0386 19.0386 21.511 15.9996 21.511ZM21.6879 11.6286C20.9689 11.6286 20.384 11.0437 20.384 10.3247C20.384 9.60569 20.9689 9.02078 21.6879 9.02078C22.4069 9.02078 22.9919 9.60569 22.9919 10.3247C22.9919 11.0437 22.4069 11.6286 21.6879 11.6286ZM15.9996 12.8181C14.2456 12.8181 12.8174 14.2456 12.8174 15.9996C12.8174 17.7544 14.2456 19.1826 15.9996 19.1826C17.7544 19.1826 19.1819 17.7544 19.1819 15.9996C19.1819 14.2456 17.7544 12.8181 15.9996 12.8181ZM4 0C1.79086 0 0 1.79086 0 4V28C0 30.2091 1.79086 32 4 32H28C30.2091 32 32 30.2091 32 28V4C32 1.79086 30.2091 0 28 0H4ZM26.6986 21.301C26.6986 24.2775 24.2775 26.6986 21.301 26.6986H10.699C7.72247 26.6986 5.30138 24.2775 5.30138 21.301V10.699C5.30138 7.72247 7.72247 5.30138 10.699 5.30138H21.301C24.2775 5.30138 26.6986 7.72247 26.6986 10.699V21.301ZM21.301 7.62978H10.699C9.00674 7.62978 7.62978 9.00674 7.62978 10.699V21.301C7.62978 22.9933 9.00674 24.3702 10.699 24.3702H21.301C22.9933 24.3702 24.3702 22.9933 24.3702 21.301V10.699C24.3702 9.00674 22.9933 7.62978 21.301 7.62978ZM15.9996 21.511C12.9614 21.511 10.489 19.0386 10.489 15.9996C10.489 12.9614 12.9614 10.489 15.9996 10.489C19.0386 10.489 21.511 12.9614 21.511 15.9996C21.511 19.0386 19.0386 21.511 15.9996 21.511ZM21.6879 11.6286C20.9689 11.6286 20.384 11.0437 20.384 10.3247C20.384 9.60569 20.9689 9.02078 21.6879 9.02078C22.4069 9.02078 22.9919 9.60569 22.9919 10.3247C22.9919 11.0437 22.4069 11.6286 21.6879 11.6286ZM15.9996 12.8181C14.2456 12.8181 12.8174 14.2456 12.8174 15.9996C12.8174 17.7544 14.2456 19.1826 15.9996 19.1826C17.7544 19.1826 19.1819 17.7544 19.1819 15.9996C19.1819 14.2456 17.7544 12.8181 15.9996 12.8181ZM15.9996 12.8181C14.2456 12.8181 12.8174 14.2456 12.8174 15.9996C12.8174 17.7544 14.2456 19.1826 15.9996 19.1826C17.7544 19.1826 19.1819 17.7544 19.1819 15.9996C19.1819 14.2456 17.7544 12.8181 15.9996 12.8181ZM15.9996 12.8181C14.2456 12.8181 12.8174 14.2456 12.8174 15.9996C12.8174 17.7544 14.2456 19.1826 15.9996 19.1826C17.7544 19.1826 19.1819 17.7544 19.1819 15.9996C19.1819 14.2456 17.7544 12.8181 15.9996 12.8181ZM21.301 7.62978H10.699C9.00674 7.62978 7.62978 9.00674 7.62978 10.699V21.301C7.62978 22.9933 9.00674 24.3702 10.699 24.3702H21.301C22.9933 24.3702 24.3702 22.9933 24.3702 21.301V10.699C24.3702 9.00674 22.9933 7.62978 21.301 7.62978ZM15.9996 21.511C12.9614 21.511 10.489 19.0386 10.489 15.9996C10.489 12.9614 12.9614 10.489 15.9996 10.489C19.0386 10.489 21.511 12.9614 21.511 15.9996C21.511 19.0386 19.0386 21.511 15.9996 21.511ZM21.6879 11.6286C20.9689 11.6286 20.384 11.0437 20.384 10.3247C20.384 9.60569 20.9689 9.02078 21.6879 9.02078C22.4069 9.02078 22.9919 9.60569 22.9919 10.3247C22.9919 11.0437 22.4069 11.6286 21.6879 11.6286ZM15.9996 12.8181C14.2456 12.8181 12.8174 14.2456 12.8174 15.9996C12.8174 17.7544 14.2456 19.1826 15.9996 19.1826C17.7544 19.1826 19.1819 17.7544 19.1819 15.9996C19.1819 14.2456 17.7544 12.8181 15.9996 12.8181ZM15.9996 12.8181C14.2456 12.8181 12.8174 14.2456 12.8174 15.9996C12.8174 17.7544 14.2456 19.1826 15.9996 19.1826C17.7544 19.1826 19.1819 17.7544 19.1819 15.9996C19.1819 14.2456 17.7544 12.8181 15.9996 12.8181ZM15.9996 12.8181C14.2456 12.8181 12.8174 14.2456 12.8174 15.9996C12.8174 17.7544 14.2456 19.1826 15.9996 19.1826C17.7544 19.1826 19.1819 17.7544 19.1819 15.9996C19.1819 14.2456 17.7544 12.8181 15.9996 12.8181ZM21.301 7.62978H10.699C9.00674 7.62978 7.62978 9.00674 7.62978 10.699V21.301C7.62978 22.9933 9.00674 24.3702 10.699 24.3702H21.301C22.9933 24.3702 24.3702 22.9933 24.3702 21.301V10.699C24.3702 9.00674 22.9933 7.62978 21.301 7.62978ZM15.9996 21.511C12.9614 21.511 10.489 19.0386 10.489 15.9996C10.489 12.9614 12.9614 10.489 15.9996 10.489C19.0386 10.489 21.511 12.9614 21.511 15.9996C21.511 19.0386 19.0386 21.511 15.9996 21.511ZM21.6879 11.6286C20.9689 11.6286 20.384 11.0437 20.384 10.3247C20.384 9.60569 20.9689 9.02078 21.6879 9.02078C22.4069 9.02078 22.9919 9.60569 22.9919 10.3247C22.9919 11.0437 22.4069 11.6286 21.6879 11.6286ZM15.9996 12.8181C14.2456 12.8181 12.8174 14.2456 12.8174 15.9996C12.8174 17.7544 14.2456 19.1826 15.9996 19.1826C17.7544 19.1826 19.1819 17.7544 19.1819 15.9996C19.1819 14.2456 17.7544 12.8181 15.9996 12.8181Z" fill="#E937C0"/>
</svg>

<svg width="32" height="32" fill="none" xmlns="http://www.w3.org/2000/svg"><rect width="32" height="32" rx="6" fill="#fff"/><path d="M16 12.818A3.186 3.186 0 0012.817 16 3.187 3.187 0 0016 19.183 3.186 3.186 0 0019.182 16 3.186 3.186 0 0016 12.818zm0 0A3.186 3.186 0 0012.817 16 3.187 3.187 0 0016 19.183 3.186 3.186 0 0019.182 16 3.186 3.186 0 0016 12.818zm5.3-5.188H10.699a3.073 3.073 0 00-3.07 3.069v10.602a3.073 3.073 0 003.07 3.07h10.602a3.073 3.073 0 003.07-3.07V10.699a3.073 3.073 0 00-3.07-3.07zM16 21.51A5.517 5.517 0 0110.489 16a5.517 5.517 0 015.51-5.511 5.517 5.517 0 015.512 5.51A5.518 5.518 0 0116 21.512zm5.688-9.882a1.305 1.305 0 01-1.304-1.304 1.305 1.305 0 012.608 0c0 .719-.585 1.304-1.304 1.304zM16 12.819a3.186 3.186 0 00-3.183 3.18A3.187 3.187 0 0016 19.184 3.186 3.186 0 0019.182 16 3.186 3.186 0 0016 12.818zm5.301-5.19H10.699a3.073 3.073 0 00-3.07 3.07v10.602a3.073 3.073 0 003.07 3.07h10.602a3.073 3.073 0 003.07-3.07V10.699a3.073 3.073 0 00-3.07-3.07zM16 21.512A5.517 5.517 0 0110.489 16a5.517 5.517 0 015.51-5.511 5.517 5.517 0 015.512 5.51A5.518 5.518 0 0116 21.512zm5.688-9.882a1.305 1.305 0 01-1.304-1.304 1.305 1.305 0 012.608 0c0 .719-.585 1.304-1.304 1.304zM16 12.819a3.186 3.186 0 00-3.183 3.18A3.187 3.187 0 0016 19.184 3.186 3.186 0 0019.182 16 3.186 3.186 0 0016 12.818zM4 0a4 4 0 00-4 4v24a4 4 0 004 4h24a4 4 0 004-4V4a4 4 0 00-4-4H4zm22.699 21.301a5.403 5.403 0 01-5.398 5.398H10.699A5.403 5.403 0 015.301 21.3V10.699A5.403 5.403 0 0110.7 5.301h10.602a5.403 5.403 0 015.398 5.398v10.602zM21.3 7.63H10.699a3.073 3.073 0 00-3.07 3.069v10.602a3.073 3.073 0 003.07 3.07h10.602a3.073 3.073 0 003.07-3.07V10.699a3.073 3.073 0 00-3.07-3.07zM16 21.51A5.517 5.517 0 0110.489 16a5.517 5.517 0 015.51-5.511 5.517 5.517 0 015.512 5.51A5.518 5.518 0 0116 21.512zm5.688-9.882a1.305 1.305 0 01-1.304-1.304 1.305 1.305 0 012.608 0c0 .719-.585 1.304-1.304 1.304zM16 12.819a3.186 3.186 0 00-3.183 3.18A3.187 3.187 0 0016 19.184 3.186 3.186 0 0019.182 16 3.186 3.186 0 0016 12.818zm0 0a3.186 3.186 0 00-3.183 3.18A3.187 3.187 0 0016 19.184 3.186 3.186 0 0019.182 16 3.186 3.186 0 0016 12.818zm0 0a3.186 3.186 0 00-3.183 3.18A3.187 3.187 0 0016 19.184 3.186 3.186 0 0019.182 16 3.186 3.186 0 0016 12.818zm5.301-5.19H10.699a3.073 3.073 0 00-3.07 3.07v10.602a3.073 3.073 0 003.07 3.07h10.602a3.073 3.073 0 003.07-3.07V10.699a3.073 3.073 0 00-3.07-3.07zM16 21.512A5.517 5.517 0 0110.489 16a5.517 5.517 0 015.51-5.511 5.517 5.517 0 015.512 5.51A5.518 5.518 0 0116 21.512zm5.688-9.882a1.305 1.305 0 01-1.304-1.304 1.305 1.305 0 012.608 0c0 .719-.585 1.304-1.304 1.304zM16 12.819a3.186 3.186 0 00-3.183 3.18A3.187 3.187 0 0016 19.184 3.186 3.186 0 0019.182 16 3.186 3.186 0 0016 12.818zm0 0a3.186 3.186 0 00-3.183 3.18A3.187 3.187 0 0016 19.184 3.186 3.186 0 0019.182 16 3.186 3.186 0 0016 12.818zm0 0a3.186 3.186 0 00-3.183 3.18A3.187 3.187 0 0016 19.184 3.186 3.186 0 0019.182 16 3.186 3.186 0 0016 12.818zm5.301-5.19H10.699a3.073 3.073 0 00-3.07 3.07v10.602a3.073 3.073 0 003.07 3.07h10.602a3.073 3.073 0 003.07-3.07V10.699a3.073 3.073 0 00-3.07-3.07zM16 21.512A5.517 5.517 0 0110.489 16a5.517 5.517 0 015.51-5.511 5.517 5.517 0 015.512 5.51A5.518 5.518 0 0116 21.512zm5.688-9.882a1.305 1.305 0 01-1.304-1.304 1.305 1.305 0 012.608 0c0 .719-.585 1.304-1.304 1.304zM16 12.819a3.186 3.186 0 00-3.183 3.18A3.187 3.187 0 0016 19.184 3.186 3.186 0 0019.182 16 3.186 3.186 0 0016 12.818z" fill="#E937C0"/></svg>
